!!!!SEGMENT: Ser1001d-Missa_Philomena-Sanctus.krn
!!!id: Ser1001d
!!!AGN: Mass; Kyrie
!!!voices: 2-4
!!!COM: Claudin de Sermisy
!!!OTL: Sanctus
**kern	**kern	**kern	**kern
*part4	*part3	*part2	*part1
*staff4	*staff3	*staff2	*staff1
*I"Bassus	*I"Tenor	*I"Altus	*I"Superius
*I'B	*I'T	*I'A	*I'S
*clefF4	*clefGv2	*clefG2	*clefG2
*k[]	*k[]	*k[]	*k[]
*C:	*C:	*C:	*C:
*M2/1	*M2/1	*M2/1	*M2/1
*met(C|)	*met(C|)	*met(C|)	*met(C|)
!!section: Sanctus
!!!OMD: Sanctus
=1	=1	=1	=1
0r	0r	0g	0r
=2	=2	=2	=2
0r	0r	1g	0dd
.	.	1f	.
=3	=3	=3	=3
0r	0r	4d	1dd
.	.	4e	.
.	.	4f	.
.	.	4d	.
.	.	2e	1cc
.	.	[2f	.
=4	=4	=4	=4
0r	0r	2f]	1a
.	.	4e	.
.	.	4d	.
.	.	2c	2r
.	.	2d	2a
=5	=5	=5	=5
0r	0r	2A	2.cc
.	.	1a	.
.	.	.	4dd
.	.	.	2ee
.	.	2d	[2ff
=6	=6	=6	=6
0r	0r	2f	4ff]
.	.	.	4ee
.	.	2g	1dd
.	.	1e	.
.	.	.	2cc#i
=7	=7	=7	=7
0G	0r	1.d	4dd
.	.	.	4cc
.	.	.	4b
.	.	.	4a
.	.	.	1b
.	.	2c	.
=8	=8	=8	=8
1G	0d	1B	1g
1F	.	1A	[1a
=9	=9	=9	=9
1D	1d	2r	1a]
.	.	2f	.
2E	1c	2g	1r
[2F	.	2a	.
=10	=10	=10	=10
2F]	1A	2f	0r
2D	.	2.a	.
2.F	2r	.	.
.	.	4g	.
.	2A	2f	.
4G	.	.	.
=11	=11	=11	=11
1A	2.c	2e	2r
.	.	2f	2cc
.	4d	.	.
2r	2e	2g	2b
2D	[2f	[2a	2dd
=12	=12	=12	=12
2F	4f]	2a]	4cc
.	4e	.	4a
2G	1d	1g	2b
1A	.	.	2a
.	2c	2f	[2cc
=13	=13	=13	=13
0G	[0d	2g	2cc]
.	.	1g	4b
.	.	.	4a
.	.	.	1b
.	.	2g	.
=14	=14	=14	=14
0B-X	0d]	2f	2r
.	.	2d	1dd
.	.	2.f	.
.	.	.	2dd
.	.	4g	.
=15	=15	=15	=15
0A	0r	4a	2cc
.	.	4b	.
.	.	1cc	2a
.	.	.	2.cc
.	.	[2c	.
.	.	.	4dd
=16	=16	=16	=16
1A	1r	4c]	2.ee
.	.	4d	.
.	.	4e	.
.	.	4f	8ddL
.	.	.	8ccJ
2.G	2r	1g	1b
.	[2d	.	.
4F	.	.	.
=17	=17	=17	=17
4D	2d]	1f	1a
4E	.	.	.
4F	2d	.	.
4G	.	.	.
4A	2c	2.e	2r
4B	.	.	.
4c	2A	.	[2a
4d	.	4d	.
=18	=18	=18	=18
2e	2c	2c	2a]
1d	2d	2B	2g
.	1e	1A	4a
.	.	.	4b
2c	.	.	4cc
.	.	.	4a
=19	=19	=19	=19
1d	1f	2r	2b
.	.	2d	2a
2r	2d	2.f	2.dd
[2d	[2f	.	.
.	.	4g	4ee
=20	=20	=20	=20
2d]	4f]	2a	2ff
.	4g	.	.
2d	4a	2f	2dd
.	4f	.	.
2c	2g	2e	[1ee
2A	[2a	[2cc	.
=21	=21	=21	=21
2.c	4a]	4cc]	2ee]
.	4g	4b	.
.	2.e	1a	2cc
4d	.	.	.
1e	.	.	1b
.	4f	.	.
.	4g	2g	.
.	4e	.	.
=22	=22	=22	=22
0A	2f	2.a	2r
.	2e	.	1cc
.	.	4g	.
.	2.c	2.e	.
.	.	.	2cc
.	4d	4f	.
=23	=23	=23	=23
1r	1e	1g	2b
.	.	.	2g
[1G	1d	2.g	2.b
.	.	4a	4cc
=24	=24	=24	=24
2G]	2r	1b	4dd
.	.	.	4cc
2G	1d	.	4dd
.	.	.	4ee
2F	.	[1a	[1ff
2D	2d	.	.
=25	=25	=25	=25
2.F	2c	1a]	1ff]
.	2A	.	.
4G	.	.	.
1A	2.c	1r	1ee
.	4d	.	.
=26	=26	=26	=26
2.A	2e	1r	0r
.	2f	.	.
4B	.	.	.
2c	2e	[1g	.
[2d	2d	.	.
=27	=27	=27	=27
2d]	1e	2g]	1r
2c#i	.	2g	.
1d	2.d	2f	[1dd
.	.	2d	.
.	4c	.	.
=28	=28	=28	=28
1r	1B	2.f	2dd]
.	.	.	2dd
.	.	4g	.
2r	2A	4a	2cc
.	.	4b	.
[2A	[2e	[2cc	2a
=29	=29	=29	=29
2A]	4e]	2cc]	2.cc
.	4d	.	.
2A	4e	2a	.
.	4f	.	4dd
2G	2g	2b	2ee
2F	2a	[2cc	2ff
=30	=30	=30	=30
2.c	2g	4cc]	2.ee
.	.	4b	.
.	2.e	2g	.
4B	.	.	4dd
2A	.	2a	2cc
.	4f	.	.
[2G	2g	2d	[2b
=31	=31	=31	=31
4G]	2d	2g	4b]
4F	.	.	4a
2D	2f	1a	1dd
1A	1e	.	.
.	.	2a	2cc#i
=32	=32	=32	=32
00D	00d	00f	00dd
=33||	=33||	=33||	=33||
*	*	*M2/1	*M2/1
*	*	*met(C|)	*met(C|)
!!section: Pleni sunt
!!!OMD: Pleni sunt
0r	0r	0r	0ee
=34	=34	=34	=34
0r	0r	0r	1ee
.	.	.	1ff
=35	=35	=35	=35
0r	0r	0a	1ee
.	.	.	2.cc
.	.	.	4dd
=36	=36	=36	=36
0r	0r	1a	2ee
.	.	.	1ff
.	.	1b-i	.
.	.	.	4ee
.	.	.	4dd
=37	=37	=37	=37
0r	0r	0a	2ff
.	.	.	2.ee
.	.	.	4dd
.	.	.	4cc
.	.	.	4b
=38	=38	=38	=38
0r	0r	1f	2a
.	.	.	1dd
.	.	2g	.
.	.	[2a	4cc
.	.	.	4b
=39	=39	=39	=39
0r	0r	4a]	2cc
.	.	4g	.
.	.	4f	2.dd
.	.	4e	.
.	.	2d	.
.	.	.	4cc
.	.	[2f	4a
.	.	.	4b
=40	=40	=40	=40
0r	0r	4f]	2.cc
.	.	4g	.
.	.	4a	.
.	.	4b	4dd
.	.	2.cc	4ee
.	.	.	4ff
.	.	.	[2gg
.	.	4b	.
=41	=41	=41	=41
0r	0r	2g	4gg]
.	.	.	4ff
.	.	2b	4dd
.	.	.	4ee
.	.	1a	2ff
.	.	.	[2ee
=42	=42	=42	=42
0r	0r	2g	4ee]
.	.	.	4dd
.	.	1a	4cc
.	.	.	4b
.	.	.	2cc
.	.	2d	2dd
=43	=43	=43	=43
0r	0r	2f	2a
.	.	2g	1dd
.	.	1e	.
.	.	.	2cc#i
=44	=44	=44	=44
0r	0r	0d	1dd
.	.	.	2r
.	.	.	2dd
=45	=45	=45	=45
0r	0r	2r	1ff
.	.	2d	.
.	.	1a	2ee
.	.	.	2cc
=46	=46	=46	=46
0r	0r	2g	1ee
.	.	2a	.
.	.	1b	2dd
.	.	.	[2gg
=47	=47	=47	=47
0r	0r	2g	4gg]
.	.	.	4ff
.	.	1a	4ee
.	.	.	4dd
.	.	.	2cc
.	.	2f	[2dd
=48	=48	=48	=48
0r	0r	2.g	4dd]
.	.	.	4cc
.	.	.	4b
.	.	4f	4a
.	.	4e	2b
.	.	4d	.
.	.	[2c	2cc
=49	=49	=49	=49
0r	0r	2c]	2.a
.	.	1f	.
.	.	.	4b
.	.	.	4cc
.	.	.	4dd
.	.	2e	2ee
=50	=50	=50	=50
0r	0r	1f	2cc
.	.	.	1ff
.	.	1g	.
.	.	.	2ee
=51	=51	=51	=51
0r	0r	0f	1ff
.	.	.	2r
.	.	.	[2cc
=52	=52	=52	=52
0r	0r	2r	2cc]
.	.	1f	2cc
.	.	.	1dd
.	.	2f	.
=53	=53	=53	=53
0r	0r	2g	1ee
.	.	2.a	.
.	.	.	1ff
.	.	4g	.
.	.	2f	.
=54	=54	=54	=54
0r	0r	1g	2dd
.	.	.	2.ee
.	.	2.a	.
.	.	.	4dd
.	.	.	4cc
.	.	4g	4b
=55	=55	=55	=55
0r	0r	4f	2a
.	.	4e	.
.	.	2d	2b
.	.	2e	1cc
.	.	[2f	.
=56	=56	=56	=56
0r	0r	2f]	4a
.	.	.	4b
.	.	4e	4cc
.	.	4d	4dd
.	.	2c	2ee
.	.	[2d	[2ff
=57	=57	=57	=57
0r	0r	4d]	4ff]
.	.	4e	4ee
.	.	4f	2dd
.	.	4g	.
.	.	2a	2cc
.	.	2f	[2dd
=58	=58	=58	=58
0r	0r	1g	2dd]
.	.	.	2.ee
.	.	2e	.
.	.	.	4dd
.	.	[2a	2cc
=59	=59	=59	=59
0r	0r	2a]	2b
.	.	2g	1ee
.	.	2.a	.
.	.	.	2cc
.	.	4g	.
=60	=60	=60	=60
0r	0r	2f	2.dd
.	.	2g	.
.	.	.	4ee
.	.	2d	2ff
.	.	2a	[2ee
=61	=61	=61	=61
0r	0r	4g	2ee]
.	.	4f	.
.	.	4e	1dd
.	.	4d	.
.	.	1e	.
.	.	.	2cc#i
=62	=62	=62	=62
00r	00r	00d	00dd
=63||	=63||	=63||	=63||
*M3/1	*M3/1	*M3/1	*M3/1
*met(O/3)	*met(O/3)	*met(O/3)	*met(O/3)
!!section: Osanna
!!!OMD: Osanna
0.r	0.r	0a	0.r
.	.	1a	.
=64	=64	=64	=64
0.r	0.r	1.b-i	0dd
.	.	2a	.
.	.	2g	1dd
.	.	2f	.
=65	=65	=65	=65
0.r	0.r	1g	1.ee
.	.	0a	.
.	.	.	2dd
.	.	.	1cc
=66	=66	=66	=66
0G	0.r	1d	1dd
.	.	0g	0b
1G	.	.	.
=67	=67	=67	=67
1.A	0.r	1f	1a
.	.	1e	0cc
2G	.	.	.
2F	.	[1a	.
2E	.	.	.
=68	=68	=68	=68
1F	0d	1a]	0dd
1.G	.	0g	.
.	1d	.	1b
2F	.	.	.
=69	=69	=69	=69
2E	1.e	0g	1b
2D	.	.	.
1E	.	.	1cc
.	2d	.	.
1F	1c	1f	1a
=70	=70	=70	=70
1D	1d	1f	1a
0d	0B	0g	1b
.	.	.	1dd
=71	=71	=71	=71
1.e	0A	1.a	1.cc
2d	.	2b	2dd
1c	1r	1cc	1ee
=72	=72	=72	=72
1d	0d	0a	1ff
0B	.	.	0dd
.	1d	1g	.
=73	=73	=73	=73
1A	1.e	1a	1cc
1E	.	1g	1.b
.	2d	.	.
1F	1c	[1f	.
.	.	.	2a
=74	=74	=74	=74
1D	1d	1f]	0a
0E	0B	0e	.
.	.	.	1g#i
=75	=75	=75	=75
1F	[0.A	1c	1a
2D	.	0f	0dd
2E	.	.	.
2F	.	.	.
2G	.	.	.
=76	=76	=76	=76
1A	0.A]	1e	1cc
2D	.	1.f	1dd
2E	.	.	.
2F	.	.	1a
2G	.	2e	.
=77	=77	=77	=77
2A	0.r	2c	0cc
2B	.	2d	.
1c	.	2e	.
.	.	2f	.
1G	.	1g	1b
=78	=78	=78	=78
1B	0d	2d	1g
.	.	1g	.
0A	.	.	0a
.	.	4f#i	.
.	.	4e	.
.	1c	1f#i	.
=79	=79	=79	=79
0G	1.d	0g	0b
.	2c	.	.
1r	2A	[1a	[1cc
.	2B	.	.
=80	=80	=80	=80
0.r	2c	1a]	1cc]
.	2d	.	.
.	2e	1.g	1.b
.	2f	.	.
.	[1g	.	.
.	.	2f	2a
=81	=81	=81	=81
0G	2g]	1d	2b
.	2f	.	2cc
.	2d	1g	1dd
.	2e	.	.
1F	1f	1c	1a
=82	=82	=82	=82
1.G	1e	0g	0b
.	1.d	.	.
2F	.	.	.
2D	.	[1f	1a
2E	2c	.	.
=83	=83	=83	=83
2F	2A	1f]	0.a
2G	2B	.	.
0A	2c	1e	.
.	2d	.	.
.	1e	1c	.
=84	=84	=84	=84
1B	0d	1d	0.r
0A	.	0e	.
.	1c#i	.	.
=85	=85	=85	=85
0D	0d	2d	0dd
.	.	2e	.
.	.	2f	.
.	.	2g	.
1r	1r	1a	1cc
=86	=86	=86	=86
2D	0d	0f	1dd
2E	.	.	.
2F	.	.	0a
2G	.	.	.
1A	1c	1e	.
=87	=87	=87	=87
2D	1d	[0.a	1.ff
1d	.	.	.
.	0A	.	.
4c	.	.	4ee
4B	.	.	4dd
1c	.	.	1ee
=88	=88	=88	=88
0d	1.f	0a]	0dd
.	4e	.	.
.	4d	.	.
1r	1e	1r	1cc#i
=89	=89	=89	=89
2G	0d	0g	[0.dd
2A	.	.	.
2B	.	.	.
2c	.	.	.
1d	1r	1f	.
=90	=90	=90	=90
1G	0g	1g	0.dd]
0d	.	0a	.
.	1f	.	.
=91	=91	=91	=91
1G	1g	1b-i	0dd
1B	1d	1g	.
1A	1e	1a	1cc
=92	=92	=92	=92
0d	0f	1.a	1dd
.	.	.	1a
.	.	2b	.
1c	1e	1cc	1ee
=93	=93	=93	=93
1d	1d	0a	1ff
1A	1c	.	1.ee
[1B	[1d	1f	.
.	.	.	2dd
=94	=94	=94	=94
1B]	1d]	1g	0dd
0A	0e	0a	.
.	.	.	1cc#i
=95	=95	=95	=95
00D	00d	00f	00ddl
=96||	=96||	=96||	=96||
*M2/1	*M2/1	*M2/1	*
*met(C|)	*met(C|)	*met(C|)	*
!!section: Benedictus
!!!OMD: Benedictus
1A	1r	0r	0r
2.c	1A	.	.
4B	.	.	.
=97	=97	=97	=97
4A	2.c	0r	0r
4G	.	.	.
2.A	.	.	.
.	4d	.	.
.	2e	.	.
4G	.	.	.
4F	[2f	.	.
4E	.	.	.
=98	=98	=98	=98
2D	2f]	0r	0r
2.A	4e	.	.
.	4d	.	.
.	2f	.	.
4G	.	.	.
4A	[2e	.	.
4B	.	.	.
=99	=99	=99	=99
1c	4e]	1r	0r
.	4d	.	.
.	1g	.	.
1d	.	1a	.
.	[2f	.	.
=100	=100	=100	=100
2A	2f]	1cc	0r
2c	2e	.	.
2G	2d	2b	.
2A	2c	[2a	.
=101	=101	=101	=101
1B	1d	2a]	0r
.	.	2g	.
[1A	2.a	2f	.
.	.	2e	.
.	4g	.	.
=102	=102	=102	=102
1A]	2f	2.cc	0r
.	2e	.	.
.	.	4b	.
2.c	1e	2a	.
.	.	2g	.
4B	.	.	.
=103	=103	=103	=103
4A	2r	2a	0r
4G	.	.	.
2A	2c	2cc	.
2G	2d	2b	.
2F	[2f	[2a	.
=104	=104	=104	=104
1B-i	2f]	2a]	0r
.	4e	2g	.
.	4d	.	.
1A	2f	[1a	.
.	2e	.	.
=105	=105	=105	=105
2r	1A	0a]	0r
2c	.	.	.
2d	2r	.	.
2c	2c	.	.
=106	=106	=106	=106
2f	2d	0a	0r
2e	2c	.	.
2.d	1f	.	.
4c	.	.	.
=107	=107	=107	=107
1A	2.e	2r	0r
.	.	2c	.
.	8dL	.	.
.	8cJ	.	.
2G	2B	2d	.
2A	[2A	2c	.
=108	=108	=108	=108
2F	2A]	1f	0r
2D	1d	.	.
1A	.	1e	.
.	2c	.	.
=109	=109	=109	=109
2r	1f	1a	0r
2F	.	.	.
2G	2e	2g	.
2F	[2f	2a	.
=110	=110	=110	=110
1B-i	4f]	1d	0r
.	4e	.	.
.	1d	.	.
1A	.	1e	.
.	2c#i	.	.
=111	=111	=111	=111
1D	0d	2r	0r
.	.	2d	.
2r	.	2.f	.
2D	.	.	.
.	.	4g	.
=112	=112	=112	=112
2.F	2r	1a	0r
.	2d	.	.
4G	.	.	.
2A	2f	1r	.
2B	2f	.	.
=113	=113	=113	=113
2.c	2.e	1r	0r
4B	4d	.	.
2A	2c	2r	.
[2B	2f	2d	.
=114	=114	=114	=114
2B]	2d	2.f	0r
1A	2e	.	.
.	.	4g	.
.	2f	2a	.
2G	2g	2b	.
=115	=115	=115	=115
1A	2e	2.cc	0r
.	2.f	.	.
.	.	4b	.
2r	.	4a	.
.	4e	4g	.
2D	4d	[2b	.
.	4c	.	.
=116	=116	=116	=116
2F	2d	2b]	0r
2F	2A	1a	.
2.E	1B	.	.
.	.	2g	.
4D	.	.	.
=117	=117	=117	=117
2C	1A	1.a	0r
2.D	.	.	.
.	1d	.	.
4E	.	.	.
4F	.	4g	.
4G	.	4f	.
=118	=118	=118	=118
1A	1c	2e	0r
.	.	2f	.
1G	2r	1g	.
.	2d	.	.
=119	=119	=119	=119
4D	2f	2r	0r
4E	.	.	.
4F	2f	2a	.
4G	.	.	.
4A	1e	2cc	.
4B	.	.	.
4c	.	2cc	.
4d	.	.	.
=120	=120	=120	=120
2e	2.g	2.b	0r
1E	.	.	.
.	4f	4a	.
.	4e	2g	.
.	4d	.	.
2F	2c	[2a	.
=121	=121	=121	=121
2D	2d	2a]	0r
2E	2B	2g	.
2F	2A	1f	.
2D	[2d	.	.
=122	=122	=122	=122
1A	2d]	1e	0r
.	2c#i	.	.
[1D	1d	2r	.
.	.	2d	.
=123	=123	=123	=123
1D]	2r	2f	0r
.	2A	2f	.
1r	2c	1e	.
.	2c	.	.
=124	=124	=124	=124
2r	1B	4d	0r
.	.	4e	.
2D	.	4f	.
.	.	4g	.
2F	2A	2a	.
2F	[2d	2f	.
=125	=125	=125	=125
1E	2d]	2.g	0r
.	2c	.	.
.	.	4a	.
[1D	2d	2b-i	.
.	[2f	[2a	.
=126	=126	=126	=126
1D]	4f]	4a]	0r
.	4e	4g	.
.	4d	4f	.
.	4c	4e	.
1D	1d	1f	.
=127	=127	=127	=127
00Al	00cl	00el	00r
==	==	==	==
*-	*-	*-	*-
!!!system-decoration: [*]
!!!RDF**kern: i = editorial accidental
!!!RDF**kern: l = terminal long
!!!ENC: Benjamin Ory
!!!END: 2024/9/19
!!!EED: Benjamin Ory
!!!EEV: 2024/09/19
!!!YEC: Copyright 2024 Benjamin Ory, All Rights Reserved
!!!ONB: Translated from MusicXML on 2024/09/19